X:172
T:Strength in the Bow* + (s'spey)
B:NFID.192b ("untitled strathspey")
172str_b
S:DOD
L:1/8
M:C
R:hornpipe
Q:280
K:F
cFAF cFAF|cFAF D<GG2|CFAF cAfd|1 cBAG (3FFF [A2F2]:|\
[2 cBAG (3FFF FA||
cfaf gfaf|cfaf e<gg2|cfaf gfaf|gfga (3fff [f2A2]|
cfaf gfaf|cfaf e<gg2|f<ad<f c<fAd|cBAG (3FFF F2|]
= = =
P:version in D
K:D
ADFD ADFD|ADFD B,<EE2|A,DFD AFdB|1 AGFE (3DDD [F2D2]:|\
[2 AGFE (3DDD DF||
Adfd edfd|Adfd c<ee2|Adfd edfd|edef (3ddd [d2F2]|
Adfd edfd|Adfd c<ee2|d<fB<d A<dFB|AGFE (3DDD D2|]

%%%

